X: 63
T: No_56_Song_Used_in_Treatment_of_Sick_(e).krn
N: Derived from No_56_Song_Used_in_Treatment_of_Sick_(e).krn
%%abc-version 2.0
%%abcx-abcm2ps-target-version 5.9.1 (29 Sep 2008)
%%abc-creator hum2abc beta
%%abcx-conversion-date 2019/03/15 08:36:49
%%humdrum-veritas 3055726127
%%humdrum-veritas-data 3198540683
%%linebreak <none>
%%barnumbers 0
L: 1/8
M: 2/4
K: Bb clef=bass
[K:clef=bass][M:2/4]B,/B,3/-B,2- | 
B,4- | 
B,4 | 
C/B,3/C2 ||  
[M:3/4]C4-CB, ||  
[M:2/4]C2(3B,B,B, ||  
[M:3/4]B,6 | 
B,2F,2G,3/F,/ ||  
[M:2/4]G,4 ||  
[M:3/4]G,4-G,F, ||  
[M:2/4]G,2(3F,F,F, ||  
[M:3/4]F,6 ||  
[M:2/4]F,4 | 
F,3F, | 
F,4 |]  



